X:1
T:A minor                      Jeremiah Ingalls, 1805
T:John Cennick, 1743               77. 77.
T:The Pilgrim's Song
T:Treble-Tenor-Bass transcribed from Ingalls' Christian Harmony , 1805 ; Counter by B. C. Johnston, 2017.
%%score [ 1 2 3 4 ]
L:1/8
Q:1/4=100
M:4/4
K:C
V:1 treble nm="Tr." snm="Tr."
V:2 treble nm="C." snm="C."
V:3 treble-8 nm="T." snm="T."
V:4 bass nm="B." snm="B."
V:1
"^1. Children of   the  heavenly  King,    As  you journey,  sweetly  sing;   Sing your Savior's worthy praise,  Glorious in his works and ways.\n2.  Ye  are  traveling  home  to   God       In  the  way your fathers  trod;    They  are  happy  now,  and  ye    Soon  their happiness shall see." c2 A2 B4 | %1
 B4 A2 ^G2 | A8 | e2 c2 e4 | c4 d2 c2 | B8 | c2 B2 A4 | B4 c2 d2 | e8 | A2 B2 c4 | A4 BA ^G2 | %11
 A8 |] %12
V:2
"^3. Oh!  ye   banished  seed,  be  glad,  Christ  our  advocate  is    made;   Us  to save, our  flesh assumes,  Brother  to  our  souls  be – comes.\n4. Shout  ye  little  flocks  and  bless,  You on Jesus’ arms  shall   rest;   There your seat is now prepared,  There’s your kingdom and reward." A2 A2 ^G4 | %1
 B4 c2 B2 | A8 | E2 E2 G4 | A4 B2 c2 | B8 | A2 B2 c4 | B4 c2 B2 | A8 | A2 F2 E4 | F4 DF ^G2 | A8 |] %12
V:3
"^5. O!  ye  breth–ren,  joy– ful  stand   On  the  borders  of  your  land;  Jesus Christ, your Father's Son,  Bids  you  un–dis–mayed  go   on.\n6. Lord,  o – be – dient – ly  we  go,   Glad – ly  lea – ving  all  be–low;  Only  thou  our  lea – der   be,     And   we   still   will  fol–low  thee." e2 c2 d4 | %1
 e4 c2 B2 | A8 | g2 e2 g4 | a4 g2 f2 | e8 | A2 B2 c4 | d4 e2 d2 | c8 | d2 f2 e4 | c4 dc B2 | A8 |] %12
V:4
"^________________________________________________________________________________\nA folk hymn. The tune is based on an Irish ballad (Jackson 1952, no. 163)." A,2 A,2 ^G,4 | %1
 E,4 A,2 E,2 | A,,8 | C2 C2 C4 | A,4 B,2 B,2 | E,8 | A,2 E,2 A,4 | G,4 C2 B,2 | A,8 | D,2 D,2 C,4 | %10
 F,4 D,2 E,2 | A,,8 |] %12

